X:1
T:Paddy O'Rafferty  "arr. Pipe Major A. MacDonald, Scots Guards"
M:6/8
L:1/8
Q:80
C:Traditional Irish
S:Jig
K:HP
|: {gfg}f2A{g}ABA|
{gf}g2f{g}ede|
{gfg}f2A{g}ABA|  !
{g}dfe{g}dB{G}A|
{gfg}f2A{g}ABA|
{gf}g2f{g}efg|  !
a2{GdG}a{fg}f2e|
{g}dfe{g}dB{G}A:| |:
{g}f2{AGAG}A{g}e2{AGAG}A|  !
{g}f2{AGAG}A{g}ede|
{g}f2{AGAG}A{g}e2{AGAG}A|
{g}dfe{g}dB{G}A|  !
{g}f2{AGAG}A{g}e2{AGAG}A|
{g}f2{AGAG}A{g}efg|
a2{GdG}a{fg}f2e|  !
{g}dfe{g}dB{G}A:| |:
{g}fd{G}d{g}ed{G}d|
{g}fd{G}d{g}edB|  !
{g}fd{G}d{g}ed{G}d|
{g}dfe{g}dB{G}A|
{g}fd{G}d{g}ed{G}d|  !
{g}fd{G}d{g}efg|
a2{GdG}a{fg}f2e|
{g}dfe{g}dB{G}A:| |:  !
{g}Aa{g}aAe{A}e|
{g}Aa{g}aefg|
{g}Aa{g}aAe{A}e|  !
{g}dfe{g}dB{G}A|
{g}Aa{g}aAe{A}e|
{g}Aa{g}aefg|  !
a2{GdG}a{fg}f2e|
{g}dfe{g}dB{G}A:|

